X:456
T: Was Angst, was Furcht, was Schrecken (5-52), S. 86
N: P0726
O: Lothringen
S: MERKELBACH-PINCK, Angelika: Verklingende Weisen, Bd 5, Kassel 1962]
R: geistliches, religises Lied]
M: 3/4
L: 1/16
K: F
G4 | c4c4G4G2A2 | B2c2B4z4 |
(3B2c2d2 | c3BA3G(3F2G2A2 | G4z6
G2 | G2G2G2G2F2G2 | _A2G2z4
A2G2 | F3G_A2G2F4E4 | F12

